X:1
T:DIVERTIM
T:John Baldwin (1560 - 1615)
T:Upon in nomine
T:Triplex ad placitum BL RM 24 d2 - 1592 
T:transposed up a 5th
T:© 2019 - Gatineau,QC.,CA.
T:© 2019 - Gatineau,QC.,CA.
T:© 2019 - Gatineau,QC.,CA.
C:John Baldwin (1560 - 1615)
C:Arr. Michel Rondeau
Z:© 2019 - Gatineau,QC.,CA.
%%score [ 1 2 3 4 ]
L:1/8
M:6/4
K:C
V:1 treble nm="MusicXML Part"
V:2 treble nm="MusicXML Part"
V:3 treble nm="MusicXML Part"
V:4 bass nm="MusicXML Part"
V:1
 z4 d2 f6 | a4 g2 e6 | a6 f6 | f4 a4 e4 | z2 a2 a6 c'2- | c'2 b2 g4 g2 a2 | g2 ab c'3 b a3 g | %7
 fgag f2 g2 e2 b2 | c'3 b a3 g f2 e2 | g4 d'2 d'3 c' a2- | ab c'3 b ag a2 g2 | c'2 c'3 b agab c'2 | %12
 b3 a g2 e2 g2 b2 | a4 e4 z2 e2 | e2 e3 d Bc d2 e2 | A2 c'2 c'2 c'3 b g2- | gabc' b2 e2 b2 c'2 | %17
 b3 a g2 fgagfg | e4 g2 c'4 c'2 | d'3 c'ba g2 fe d2 | gabc' d'2 a3 g f2 |[M:9/4] e4 z2 z6 g3 a b2 | %22
 c'3 b g2 g3 a b2 a3 b c'2 | c'3 d' c'2 c'3 g a2 g3 f e2 | e2 c2 d2 e6 z4 e2 | c6 f4 e2 f3 e d2 | %26
 d3 c d2 e6 z4 b2 | c'3 b a2 g2 a2 g2 a4 z2 | c'2 g2 a4 b2 c'2 g3 a b2 | c'6 z4 g2 b3 c' d'2 | %30
 a3 b c'2 a2 f2 g2 g4 c'2 | c'4 g2 d'3 c' b2 b4 a2 | d'2 a2 d'2 g4 a2 e6 | %33
 z4 a2 c'2 a2 c'2 a3 g f2 | e2 a2 g2 g4 d2 z4 f2 | g3 a g2 f3 e d2 ^c16 |] %36
V:2
 A12 | c12 | A12- | A12 | A12 | G12 | c12 | d12 | c12 | d12 | e12- | e12 | e12- | e12 | g12 | %15
 e12- | e12 | d12 | c12 | d12 | d12 |[M:9/4] e12- e6 | e12- e6 | e12- e6 | g12- g6 | a12- a6 | %26
 g12- g6 | e12- e6 | f6 e6 e6 | e6 e6 d6 | c6 d6 e6 | c6 d6 e6 | d6 c6 c6 | c6 c6 d6 | c6 B6 A6 | %35
 G6 A6 A16 |] %36
V:3
 z2 D6 F4- | F2 E6 C4- | C2 F4 D6 | D6 C6 | D6 A,6 | z2 D4 E6 | E2 FG A3 G F2 E2 | %7
 D3 E F2 D2 E2 F2 | C3 D E2 FG A2 G2 | G4 z2 D3 E F2- | FG A2 G2 E3 F G2 | G2 A3 G ABcB A2 | %12
 B2 GA B2 c2 B3 G | AB c3 B AG G3 F | GA B2 G2 G3 A B2 | c3 B A2 G2 E3 F | G3 A B2 AG B2 A2 | %17
 z2 D3 E F3 GAB | c2 G4 A4 G2- | G4 z2 DEFG A2 | GF G2 DE FGABcd |[M:9/4] c6 B4 E2 E4 D2 | %22
 C3 D E2 E3 F G2 A4 z2 | c3 G A2 G2 E2 A2 E3 F G2 | G3 A B2 c3 d c2 B3 c B2 | A6 z4 A2 d2 A2 d2 | %26
 G3 A B2 c3 d c2 B3 A G2 | A6 z4 G2 c2 A2 B2 | A2 G2 d2 c2 B2 A2 B4 G2 | c2 A2 c2 A4 G2 G3 A B2 | %30
 A4 E2 F2 A2 G2 G2 B2 A2 | G2 F2 E2 D4 G2 G4 A2 | A3 G F2 E6 z4 G2 | c2 A2 c2 A3 G E2 F3 G A2 | %34
 z4 E2 G2 E2 G2 F3 E D2 | E4 E2 F2 D2 F2 E16 |] %36
V:4
 z4 D,6 A,2- | A,4 C4 A,2 A,2- | A,2 F,6 D,4- | D,2 F,6 A,4 | D,2 F,6 C4- | C2 G,6 C4- | %6
 C2 F,6 A,4 | D,6 G,6 | A,6 F,4 C2 | B,2 G,3 A, B,3 C D2 | C2 A,3 B, C3 D E2 | %11
 C2 A,3 B, C3 G, A,2 | E,3 F, G,2 A,2 G,2 E,2 | A,2 A,3 B, C2 C3 D | E2 E,3 F, G,2 G,2 E,2 | %15
 A,2 A,3 B, C2 C3 D | E2 E3 B, C2 G,2 A,2 | B,2 B,3 C D2 D3 G, | A,B, C3 B, A,G, A,2 C2 | %19
 B,2 G,3 A, B,C D3 C | B,A, G,2 z2 D,E,F,G,A,B, |[M:9/4] C3 G, A,2 G,2 E,2 A,2 E,3 F, G,2 | %22
 A,3 B, C2 C2 A,2 E2 A,6 | z4 A,2 C4 A,2 C3 D E2 | C4 G,2 C3 B, A,2 G,4 E,2 | %25
 F,3 G, A,2 F,2 D,2 A,2 D,6 | z4 G,2 C,3 G, A,2 G,3 F, E,2 | z4 G,2 C2 A,2 C2 A,4 G,2 | %28
 F,2 E,2 D,2 A,2 G,2 A,2 E,6 | z4 A,2 C2 A,2 C2 B,3 A, G,2 | A,3 G, A,2 F,2 D,2 G,2 E,4 A,2 | %31
 C2 A,2 C2 B,3 A, G,2 G,2 E,2 A,2 | D,6 z4 A,2 C2 A,2 C2 | A,4 F,2 F,3 G, A,2 D,4 F,2 | %34
 C2 A,2 C2 G,4 G,2 A,3 G, F,2 | E,2 C,2 E,2 D,6 A,16 |] %36

